public/cloud-icons/azure/data/sql-database-data-discovery-classification.svg

<svg xmlns="http://www.w3.org/2000/svg" xml:space="preserve" width="56.688" height="56.699" style="font-size:12px;overflow:visible;color-interpolation-filters:sRGB;fill-rule:evenodd;stroke-linecap:square;stroke-miterlimit:3" viewBox="0 0 56.688 56.699"><g transform="translate(-12.24 -12.236)"><title>Page-1</title><g transform="translate(12.24 -34.016)"><title>SQL Database Data Discovery &amp; Classification.20442</title><title>Sheet.20443</title><g transform="translate(0 -11.339)"><title>Sheet.20444</title><path d="M0 101.02c0 .91.68 1.93 1.94 1.93h49.63c.91 0 1.94-.68 1.94-1.93v-35.6H0Z" style="fill:#a0a1a2;stroke:none;stroke-width:12.23999977;stroke-linecap:butt"/></g><g transform="translate(0 -48.87)"><title>Sheet.20445</title><path d="M51.57 95.13H1.94c-1.26 0-1.94.9-1.94 1.92v5.9h53.51v-5.9c0-1.02-.69-1.92-1.94-1.92" style="fill:#7a7a7a;stroke:none;stroke-width:12.23999977;stroke-linecap:butt"/></g><g transform="translate(20.15 -25.965)"><title>Sheet.20446</title><path d="M0 91.95h13.55v-8.16H0Zm0 11h13.55v-8.17H0Z" style="fill:#fcd116;stroke:none;stroke-width:12.23999977;stroke-linecap:butt"/></g><g transform="translate(4.098 -15.307)"><title>Sheet.20447</title><path d="M32.1 92.29h13.44v-8.16H32.1Zm0-11h13.44v-8.16H32.1Zm-32.1 0h13.55v-8.16H0Zm0 11h13.55v-8.16H0Zm0 10.66h13.55v-7.82H0Z" style="fill:#fff;stroke:none;stroke-width:12.23999977;stroke-linecap:butt"/></g><g transform="translate(20.15 -15.307)"><title>Sheet.20448</title><path d="M0 95.125h13.547v7.824H0z" style="fill:#fcd116;stroke:none;stroke-width:12.23999977;stroke-linecap:butt"/></g><g transform="translate(36.202 -15.307)"><title>Sheet.20449</title><path d="M0 95.125h13.433v7.824H0z" style="fill:#fff;stroke:none;stroke-width:12.23999977;stroke-linecap:butt"/></g><g transform="translate(0 -11.339)"><title>Sheet.20450</title><path d="M1.94 57.59C.91 57.59 0 58.5 0 59.52v41.5c0 .91.91 1.93 1.94 1.93H4.1l42.8-45.36Z" style="fill:#fff;fill-opacity:.15;stroke:none;stroke-width:12.23999977;stroke-linecap:butt"/></g><g transform="translate(24.248)"><title>Sheet.20451</title><path d="M28 77.55c-.68.68-1.93.68-2.5 0-.68-.68-.68-1.93 0-2.49.68-.68 1.94-.68 2.5 0 .92.9.92 1.92 0 2.49m-.68-6.58-8.76.34L0 89.8l13.21 13.15 18.55-18.48.68-8.51Z" style="fill:#804998;stroke:none;stroke-width:12.23999977;stroke-linecap:butt"/></g><g transform="translate(24.248)"><title>Sheet.20452</title><path d="m0 89.8 13.21 13.15 2.84-2.84v-26.3z" style="fill:#fff;fill-opacity:.15;stroke:none;stroke-width:12.23999977;stroke-linecap:butt"/></g><g transform="translate(47.586 -22.904)"><title>Sheet.20453</title><path d="M4.67 100.45c-.69.68-1.94.68-2.51 0-.68-.68-.68-1.92 0-2.49.69-.68 1.94-.68 2.51 0 .91.91.91 1.93 0 2.49m1.25-3.4c-1.25-1.24-3.42-1.24-4.67 0-1.25 1.25-1.25 3.4 0 4.65s3.42 1.25 4.67 0 1.25-3.4 0-4.65" style="fill:#1e1e1e;stroke:none;stroke-width:12.23999977;stroke-linecap:butt"/></g></g></g></svg>

<?xml version="1.0" encoding="UTF-8" standalone="no"?>
<!-- Generated by Microsoft Visio, SVG Export SQL Database Data Discovery &#38; Classification.svg Page-1 -->

<svg
   xmlns:dc="http://purl.org/dc/elements/1.1/"
   xmlns:cc="http://creativecommons.org/ns#"
   xmlns:rdf="http://www.w3.org/1999/02/22-rdf-syntax-ns#"
   xmlns:svg="http://www.w3.org/2000/svg"
   xmlns="http://www.w3.org/2000/svg"
   xmlns:sodipodi="http://sodipodi.sourceforge.net/DTD/sodipodi-0.dtd"
   xmlns:inkscape="http://www.inkscape.org/namespaces/inkscape"
   width="56.688202"
   height="56.698601"
   viewBox="0 0 56.688204 56.698602"
   xml:space="preserve"
   class="st8"
   version="1.1"
   id="svg64"
   sodipodi:docname="SQL Database Data Discovery &amp; Classification.svg"
   style="font-size:12px;overflow:visible;color-interpolation-filters:sRGB;fill:none;fill-rule:evenodd;stroke-linecap:square;stroke-miterlimit:3"
   inkscape:version="0.92.5 (2060ec1f9f, 2020-04-08)"><metadata
   id="metadata70"><rdf:RDF><cc:Work
       rdf:about=""><dc:format>image/svg+xml</dc:format><dc:type
         rdf:resource="http://purl.org/dc/dcmitype/StillImage" /></cc:Work></rdf:RDF></metadata><defs
   id="defs68" /><sodipodi:namedview
   pagecolor="#ffffff"
   bordercolor="#666666"
   borderopacity="1"
   objecttolerance="10"
   gridtolerance="10"
   guidetolerance="10"
   inkscape:pageopacity="0"
   inkscape:pageshadow="2"
   inkscape:window-width="640"
   inkscape:window-height="480"
   id="namedview66"
   showgrid="false"
   inkscape:zoom="2.2923973"
   inkscape:cx="28.346449"
   inkscape:cy="17.459801"
   inkscape:window-x="0"
   inkscape:window-y="0"
   inkscape:window-maximized="0"
   inkscape:current-layer="svg64" />
	<style
   type="text/css"
   id="style2">
	<![CDATA[
		.st1 {fill:#a0a1a2;stroke:none;stroke-linecap:butt;stroke-width:12.24}
		.st2 {fill:#7a7a7a;stroke:none;stroke-linecap:butt;stroke-width:12.24}
		.st3 {fill:#fcd116;stroke:none;stroke-linecap:butt;stroke-width:12.24}
		.st4 {fill:#ffffff;stroke:none;stroke-linecap:butt;stroke-width:12.24}
		.st5 {fill:#ffffff;fill-opacity:0.15;stroke:none;stroke-linecap:butt;stroke-width:12.24}
		.st6 {fill:#804998;stroke:none;stroke-linecap:butt;stroke-width:12.24}
		.st7 {fill:#1e1e1e;stroke:none;stroke-linecap:butt;stroke-width:12.24}
		.st8 {fill:none;fill-rule:evenodd;font-size:12px;overflow:visible;stroke-linecap:square;stroke-miterlimit:3}
	]]>
	</style>

	<g
   id="g62"
   transform="translate(-12.24,-12.2357)">
		<title
   id="title4">Page-1</title>
		<g
   id="group20442-1"
   transform="translate(12.24,-34.0157)">
			<title
   id="title6">SQL Database Data Discovery &amp; Classification.20442</title>
			<g
   id="group20443-2">
				<title
   id="title8">Sheet.20443</title>
				<g
   id="shape20444-3"
   transform="translate(0,-11.3386)">
					<title
   id="title10">Sheet.20444</title>
					<path
   d="m 0,101.02 c 0,0.91 0.68,1.93 1.94,1.93 h 49.63 c 0.91,0 1.94,-0.68 1.94,-1.93 V 65.42 H 0 Z"
   class="st1"
   id="path12"
   inkscape:connector-curvature="0"
   style="fill:#a0a1a2;stroke:none;stroke-width:12.23999977;stroke-linecap:butt" />
				</g>
				<g
   id="shape20445-5"
   transform="translate(0,-48.8693)">
					<title
   id="title15">Sheet.20445</title>
					<path
   d="M 51.57,95.13 H 1.94 C 0.68,95.13 0,96.03 0,97.05 v 5.9 h 53.51 v -5.9 c 0,-1.02 -0.69,-1.92 -1.94,-1.92 z"
   class="st2"
   id="path17"
   inkscape:connector-curvature="0"
   style="fill:#7a7a7a;stroke:none;stroke-width:12.23999977;stroke-linecap:butt" />
				</g>
				<g
   id="shape20446-7"
   transform="translate(20.1499,-25.9654)">
					<title
   id="title20">Sheet.20446</title>
					<path
   d="M 0,91.95 H 13.55 V 83.79 H 0 Z m 0,11 H 13.55 V 94.78 H 0 Z"
   class="st3"
   id="path22"
   inkscape:connector-curvature="0"
   style="fill:#fcd116;stroke:none;stroke-width:12.23999977;stroke-linecap:butt" />
				</g>
				<g
   id="shape20447-9"
   transform="translate(4.09828,-15.3071)">
					<title
   id="title25">Sheet.20447</title>
					<path
   d="M 32.1,92.29 H 45.54 V 84.13 H 32.1 Z m 0,-11 H 45.54 V 73.13 H 32.1 Z M 0,81.29 H 13.55 V 73.13 H 0 Z m 0,11 H 13.55 V 84.13 H 0 Z m 0,10.66 H 13.55 V 95.13 H 0 Z"
   class="st4"
   id="path27"
   inkscape:connector-curvature="0"
   style="fill:#ffffff;stroke:none;stroke-width:12.23999977;stroke-linecap:butt" />
				</g>
				<g
   id="shape20448-11"
   transform="translate(20.1499,-15.3071)">
					<title
   id="title30">Sheet.20448</title>
					<rect
   x="0"
   y="95.125"
   width="13.5471"
   height="7.8236198"
   class="st3"
   id="rect32"
   style="fill:#fcd116;stroke:none;stroke-width:12.23999977;stroke-linecap:butt" />
				</g>
				<g
   id="shape20449-13"
   transform="translate(36.2015,-15.3071)">
					<title
   id="title35">Sheet.20449</title>
					<rect
   x="0"
   y="95.125"
   width="13.4333"
   height="7.8236198"
   class="st4"
   id="rect37"
   style="fill:#ffffff;stroke:none;stroke-width:12.23999977;stroke-linecap:butt" />
				</g>
				<g
   id="shape20450-15"
   transform="translate(0,-11.3386)">
					<title
   id="title40">Sheet.20450</title>
					<path
   d="M 1.94,57.59 C 0.91,57.59 0,58.5 0,59.52 v 41.5 c 0,0.91 0.91,1.93 1.94,1.93 H 4.1 L 46.9,57.59 Z"
   class="st5"
   id="path42"
   inkscape:connector-curvature="0"
   style="fill:#ffffff;fill-opacity:0.15;stroke:none;stroke-width:12.23999977;stroke-linecap:butt" />
				</g>
				<g
   id="shape20451-17"
   transform="translate(24.2482)">
					<title
   id="title45">Sheet.20451</title>
					<path
   d="m 28,77.55 c -0.68,0.68 -1.93,0.68 -2.5,0 -0.68,-0.68 -0.68,-1.93 0,-2.49 0.68,-0.68 1.94,-0.68 2.5,0 0.92,0.9 0.92,1.92 0,2.49 z M 27.32,70.97 18.56,71.31 0,89.8 13.21,102.95 31.76,84.47 32.44,75.96 Z"
   class="st6"
   id="path47"
   inkscape:connector-curvature="0"
   style="fill:#804998;stroke:none;stroke-width:12.23999977;stroke-linecap:butt" />
				</g>
				<g
   id="shape20452-19"
   transform="translate(24.2482)">
					<title
   id="title50">Sheet.20452</title>
					<path
   d="m 0,89.8 13.21,13.15 2.84,-2.84 v -26.3 z"
   class="st5"
   id="path52"
   inkscape:connector-curvature="0"
   style="fill:#ffffff;fill-opacity:0.15;stroke:none;stroke-width:12.23999977;stroke-linecap:butt" />
				</g>
				<g
   id="shape20453-21"
   transform="translate(47.5856,-22.9039)">
					<title
   id="title55">Sheet.20453</title>
					<path
   d="m 4.67,100.45 c -0.69,0.68 -1.94,0.68 -2.51,0 -0.68,-0.68 -0.68,-1.92 0,-2.49 0.69,-0.68 1.94,-0.68 2.51,0 0.91,0.91 0.91,1.93 0,2.49 z m 1.25,-3.4 c -1.25,-1.24 -3.42,-1.24 -4.67,0 -1.25,1.25 -1.25,3.4 0,4.65 1.25,1.25 3.42,1.25 4.67,0 1.25,-1.25 1.25,-3.4 0,-4.65 z"
   class="st7"
   id="path57"
   inkscape:connector-curvature="0"
   style="fill:#1e1e1e;stroke:none;stroke-width:12.23999977;stroke-linecap:butt" />
				</g>
			</g>
		</g>
	</g>
</svg>
